src/assets/whiteboard_icons/zoom_in.svg

<svg height="24" viewBox="0 -960 960 960" width="24" xmlns="http://www.w3.org/2000/svg"><path d="m784-120-252-252q-30 24-69 38t-83 14q-109 0-184.5-75.5t-75.5-184.5q0-109 75.5-184.5t184.5-75.5q109 0 184.5 75.5t75.5 184.5q0 44-14 83t-38 69l252 252zm-404-280q75 0 127.5-52.5t52.5-127.5q0-75-52.5-127.5t-127.5-52.5q-75 0-127.5 52.5t-52.5 127.5q0 75 52.5 127.5t127.5 52.5zm-40-60v-80h-80v-80h80v-80h80v80h80v80h-80v80z"/></svg>

<svg xmlns="http://www.w3.org/2000/svg" height="24px" viewBox="0 -960 960 960" width="24px" fill="#000"><path d="M784-120 532-372q-30 24-69 38t-83 14q-109 0-184.5-75.5T120-580q0-109 75.5-184.5T380-840q109 0 184.5 75.5T640-580q0 44-14 83t-38 69l252 252-56 56ZM380-400q75 0 127.5-52.5T560-580q0-75-52.5-127.5T380-760q-75 0-127.5 52.5T200-580q0 75 52.5 127.5T380-400Zm-40-60v-80h-80v-80h80v-80h80v80h80v80h-80v80h-80Z"/></svg>
